;FLAVOR:Marlin
;TIME:3236
;Filament used: 1.74285m
;Layer height: 0.2
;MINX:57.55
;MINY:86.5
;MINZ:0.2
;MAXX:160.297
;MAXY:133.5
;MAXZ:5
;Generated with Cura_SteamEngine 5.3.1
M140 S60
M105
M190 S60
M104 S200
M105
M109 S200
M82 ;absolute extrusion mode
; Ender 3 S1 Pro Start G-code
G28 ;Home
G92 E0 ;Reset Extruder
G1 Z2.0 F3000 ;Move Z Axis up
G1 X10.1 Y20 Z0.28 F5000.0 ;Move to start position
G1 X10.1 Y200.0 Z0.28 F1500.0 E15 ;Draw the first line
G1 X10.4 Y200.0 Z0.28 F5000.0 ;Move to side a little
G1 X10.4 Y20 Z0.28 F1500.0 E30 ;Draw the second line
G92 E0 ;Reset Extruder
G1 Z2.0 F3000 ;Move Z Axis up

G92 E0
G92 E0
G1 F2400 E-0.8
;LAYER_COUNT:25
;LAYER:0
M107
G0 F6000 X62.957 Y88.985 Z0.2
;TYPE:SKIRT
G1 F2400 E0
G1 F1200 X63.733 Y88.523 E0.03004
G1 X64.547 Y88.132 E0.06007
G1 X65.392 Y87.813 E0.09011
G1 X66.262 Y87.571 E0.12015
G1 X67.15 Y87.407 E0.15018
G1 X68.273 Y87.313 E0.18766
G1 X68.88 Y87.3 E0.20786
G1 X82.393 Y87.3 E0.6573
G1 X83.027 Y87.308 E0.67839
G1 X85.739 Y87.308 E0.76859
G1 X86.443 Y87.3 E0.79201
G1 X100.119 Y87.301 E1.24688
G1 X100.607 Y87.308 E1.26311
G1 X103.319 Y87.308 E1.35331
G1 X104.023 Y87.3 E1.37673
G1 X117.699 Y87.301 E1.83159
G1 X118.187 Y87.308 E1.84782
G1 X120.899 Y87.308 E1.93803
G1 X121.603 Y87.3 E1.96144
G1 X135.308 Y87.301 E2.41727
G1 X136.01 Y87.311 E2.44062
G1 X136.912 Y87.364 E2.47068
G1 X137.805 Y87.496 E2.5007
G1 X138.683 Y87.707 E2.53073
G1 X139.539 Y87.995 E2.56077
G1 X140.367 Y88.357 E2.59083
G1 X141.159 Y88.791 E2.62087
G1 X141.909 Y89.294 E2.6509
G1 X142.809 Y90.039 E2.68976
G1 X143.906 Y91.067 E2.73976
G1 X145.787 Y92.775 E2.82427
G1 X147.713 Y94.426 E2.90864
G1 X149.687 Y96.025 E2.99314
G1 X151.699 Y97.562 E3.07735
G1 X153.955 Y99.185 E3.16978
G1 X154.573 Y99.661 E3.19573
G1 X155.357 Y100.345 E3.23033
G1 X156.003 Y101.014 E3.26127
G1 X156.225 Y101.263 E3.27236
G1 X156.882 Y102.08 E3.30723
G1 X157.056 Y102.321 E3.31712
G1 X157.647 Y103.228 E3.35312
G1 X158.109 Y104.106 E3.38612
G1 X158.343 Y104.601 E3.40433
G1 X158.692 Y105.433 E3.43434
G1 X159.01 Y106.459 E3.47007
G1 X159.139 Y106.969 E3.48756
G1 X159.321 Y107.853 E3.51758
G1 X159.414 Y108.614 E3.54308
G1 X159.461 Y109.172 E3.56171
G1 X159.497 Y110.074 E3.59173
G1 X159.46 Y110.897 E3.61913
G1 X159.424 Y111.318 E3.63319
G1 X159.307 Y112.214 E3.66324
G1 X159.209 Y112.701 E3.67976
G1 X159.106 Y113.156 E3.69528
G1 X158.775 Y114.302 E3.73495
G1 X158.675 Y114.585 E3.74494
G1 X158.283 Y115.538 E3.77921
G1 X158.15 Y115.82 E3.78958
G1 X157.682 Y116.699 E3.8227
G1 X157.513 Y116.982 E3.83366
G1 X156.916 Y117.872 E3.86931
G1 X156.727 Y118.124 E3.87978
G1 X156.053 Y118.932 E3.91478
G1 X155.842 Y119.16 E3.92511
G1 X155.134 Y119.854 E3.95809
G1 X154.881 Y120.079 E3.96935
G1 X154.057 Y120.739 E4.00446
G1 X151.746 Y122.4 E4.09912
G1 X149.751 Y123.922 E4.18258
G1 X147.741 Y125.546 E4.26853
G1 X145.829 Y127.181 E4.3522
G1 X143.952 Y128.882 E4.43645
G1 X142.875 Y129.901 E4.48577
G1 X142.192 Y130.492 E4.51581
G1 X141.459 Y131.02 E4.54585
G1 X140.683 Y131.481 E4.57587
G1 X139.869 Y131.872 E4.60591
G1 X139.023 Y132.189 E4.63596
G1 X138.153 Y132.43 E4.66598
G1 X137.265 Y132.594 E4.69602
G1 X136.179 Y132.685 E4.73226
G1 X135.54 Y132.7 E4.75352
G1 X121.881 Y132.699 E5.20782
G1 X121.393 Y132.692 E5.22406
G1 X118.681 Y132.692 E5.31426
G1 X117.977 Y132.7 E5.33767
G1 X104.301 Y132.699 E5.79254
G1 X103.813 Y132.692 E5.80877
G1 X101.101 Y132.692 E5.89897
G1 X100.397 Y132.7 E5.92239
G1 X86.721 Y132.699 E6.37726
G1 X86.233 Y132.692 E6.39349
G1 X83.521 Y132.692 E6.48369
G1 X82.817 Y132.7 E6.50711
G1 X69.125 Y132.699 E6.9625
G1 X68.427 Y132.69 E6.98572
G1 X67.526 Y132.639 E7.01574
G1 X66.632 Y132.507 E7.04579
G1 X65.754 Y132.298 E7.07581
G1 X64.897 Y132.011 E7.10587
G1 X64.07 Y131.65 E7.13589
G1 X63.277 Y131.217 E7.16594
G1 X62.526 Y130.716 E7.19596
G1 X61.822 Y130.15 E7.22601
G1 X61.171 Y129.524 E7.25605
G1 X60.578 Y128.843 E7.28608
G1 X60.048 Y128.112 E7.31611
G1 X59.584 Y127.337 E7.34615
G1 X59.19 Y126.524 E7.3762
G1 X58.87 Y125.68 E7.40622
G1 X58.626 Y124.81 E7.43628
G1 X58.46 Y123.922 E7.46632
G1 X58.363 Y122.767 E7.50487
G1 X58.35 Y122.158 E7.52513
G1 X58.351 Y113.561 E7.81107
G1 X58.39 Y111.28 E7.88695
G1 X58.394 Y108.707 E7.97253
G1 X58.35 Y106.665 E8.04046
G1 X58.351 Y98.021 E8.32796
G1 X58.361 Y97.356 E8.35008
G1 X58.415 Y96.454 E8.38014
G1 X58.548 Y95.561 E8.41017
G1 X58.759 Y94.683 E8.4402
G1 X59.048 Y93.827 E8.47025
G1 X59.411 Y93 E8.50029
G1 X59.845 Y92.209 E8.5303
G1 X60.348 Y91.458 E8.56036
G1 X60.916 Y90.756 E8.59039
G1 X61.543 Y90.106 E8.62043
G1 X62.225 Y89.514 E8.65047
G1 X62.957 Y88.985 E8.68051
G0 F6000 X62.752 Y88.641
G1 F1200 X63.528 Y88.179 E8.71055
G1 X64.374 Y87.771 E8.74178
G1 X65.285 Y87.428 E8.77416
G1 X66.189 Y87.178 E8.80536
G1 X67.117 Y87.008 E8.83674
G1 X68.264 Y86.913 E8.87502
G1 X68.871 Y86.9 E8.89521
G1 X82.398 Y86.9 E9.34512
G1 X83.032 Y86.908 E9.36621
G1 X85.734 Y86.908 E9.45608
G1 X86.443 Y86.9 E9.47966
G1 X100.125 Y86.901 E9.93473
G1 X100.613 Y86.908 E9.95096
G1 X103.314 Y86.908 E10.04079
G1 X104.023 Y86.9 E10.06438
G1 X117.705 Y86.901 E10.51944
G1 X118.193 Y86.908 E10.53567
G1 X120.894 Y86.908 E10.62551
G1 X121.603 Y86.9 E10.64909
G1 X135.314 Y86.901 E11.10512
G1 X136.033 Y86.912 E11.12904
G1 X136.97 Y86.968 E11.16026
G1 X137.863 Y87.1 E11.19028
G1 X138.811 Y87.328 E11.22271
G1 X139.699 Y87.628 E11.25389
G1 X140.527 Y87.99 E11.28394
G1 X141.351 Y88.44 E11.31517
G1 X142.132 Y88.962 E11.34642
G1 X143.083 Y89.747 E11.38743
G1 X144.18 Y90.775 E11.43743
G1 X146.047 Y92.471 E11.52133
G1 X147.965 Y94.115 E11.60535
G1 X149.93 Y95.707 E11.68946
G1 X151.933 Y97.237 E11.77329
G1 X154.199 Y98.868 E11.86615
G1 X154.817 Y99.344 E11.8921
G1 X155.645 Y100.067 E11.92866
G1 X156.302 Y100.748 E11.96013
G1 X156.537 Y101.012 E11.97189
G1 X157.194 Y101.829 E12.00676
G1 X157.391 Y102.103 E12.01798
G1 X158.001 Y103.042 E12.05522
G1 X158.471 Y103.935 E12.08879
G1 X158.712 Y104.446 E12.10758
G1 X159.061 Y105.278 E12.13759
G1 X159.398 Y106.361 E12.17531
G1 X159.531 Y106.888 E12.19339
G1 X159.713 Y107.772 E12.22341
G1 X159.813 Y108.58 E12.25049
G1 X159.861 Y109.156 E12.26971
G1 X159.897 Y110.092 E12.30087
G1 X159.859 Y110.931 E12.3288
G1 X159.821 Y111.37 E12.34345
G1 X159.704 Y112.266 E12.37351
G1 X159.599 Y112.789 E12.39125
G1 X159.49 Y113.267 E12.40756
G1 X159.152 Y114.435 E12.448
G1 X159.045 Y114.737 E12.45866
G1 X158.645 Y115.709 E12.49361
G1 X158.503 Y116.008 E12.50462
G1 X158.025 Y116.904 E12.5384
G1 X157.845 Y117.205 E12.55007
G1 X157.236 Y118.112 E12.5864
G1 X157.034 Y118.38 E12.59756
G1 X156.347 Y119.204 E12.63325
G1 X156.122 Y119.446 E12.64424
G1 X155.4 Y120.153 E12.67785
G1 X155.131 Y120.391 E12.68979
G1 X154.29 Y121.064 E12.72562
G1 X151.989 Y122.718 E12.81987
G1 X149.994 Y124.24 E12.90333
G1 X148.001 Y125.85 E12.98854
G1 X146.089 Y127.485 E13.07222
G1 X144.227 Y129.173 E13.15581
G1 X143.137 Y130.203 E13.20569
G1 X142.426 Y130.817 E13.23693
G1 X141.693 Y131.345 E13.26698
G1 X140.856 Y131.842 E13.29936
G1 X140.009 Y132.247 E13.33058
G1 X139.163 Y132.564 E13.36063
G1 X138.226 Y132.823 E13.39296
G1 X137.298 Y132.993 E13.42434
G1 X136.188 Y133.085 E13.46139
G1 X135.54 Y133.1 E13.48295
G1 X121.875 Y133.099 E13.93745
G1 X121.387 Y133.092 E13.95368
G1 X118.686 Y133.092 E14.04351
G1 X117.977 Y133.1 E14.0671
G1 X104.295 Y133.099 E14.52216
G1 X103.807 Y133.092 E14.5384
G1 X101.106 Y133.092 E14.62823
G1 X100.397 Y133.1 E14.65181
G1 X86.715 Y133.099 E15.10688
G1 X86.227 Y133.092 E15.12311
G1 X83.526 Y133.092 E15.21295
G1 X82.822 Y133.1 E15.23636
G1 X69.12 Y133.099 E15.69209
G1 X68.404 Y133.089 E15.71591
G1 X67.468 Y133.035 E15.74709
G1 X66.574 Y132.903 E15.77715
G1 X65.661 Y132.687 E15.80836
G1 X64.737 Y132.378 E15.84076
G1 X63.91 Y132.017 E15.87077
G1 X63.055 Y131.55 E15.90318
G1 X62.275 Y131.028 E15.93439
G1 X61.571 Y130.462 E15.96444
G1 X60.869 Y129.787 E15.99683
G1 X60.276 Y129.106 E16.02686
G1 X59.724 Y128.347 E16.05808
G1 X59.224 Y127.511 E16.09048
G1 X58.816 Y126.666 E16.12169
G1 X58.496 Y125.822 E16.15171
G1 X58.233 Y124.884 E16.18411
G1 X58.061 Y123.955 E16.21553
G1 X57.963 Y122.776 E16.25488
G1 X57.95 Y122.158 E16.27544
G1 X57.951 Y113.554 E16.56161
G1 X57.99 Y111.273 E16.63749
G1 X57.994 Y108.706 E16.72287
G1 X57.95 Y106.665 E16.79077
G1 X57.951 Y98.015 E17.07847
G1 X57.962 Y97.332 E17.10119
G1 X58.019 Y96.395 E17.13241
G1 X58.152 Y95.502 E17.16244
G1 X58.38 Y94.555 E17.19483
G1 X58.669 Y93.699 E17.22488
G1 X59.06 Y92.808 E17.25725
G1 X59.494 Y92.017 E17.28726
G1 X60.037 Y91.206 E17.31972
G1 X60.628 Y90.478 E17.35091
G1 X61.255 Y89.828 E17.38094
G1 X61.963 Y89.212 E17.41216
G1 X62.752 Y88.641 E17.44455
G0 F6000 X62.547 Y88.297
G1 F1200 X63.323 Y87.835 E17.47459
G1 X64.233 Y87.397 E17.50818
G1 X65.178 Y87.042 E17.54175
G1 X66.082 Y86.792 E17.57295
G1 X67.084 Y86.609 E17.60683
G1 X68.255 Y86.513 E17.64591
G1 X68.862 Y86.5 E17.6661
G1 X82.403 Y86.5 E18.11647
G1 X83.037 Y86.508 E18.13756
G1 X85.729 Y86.508 E18.2271
G1 X86.443 Y86.5 E18.25085
G1 X100.131 Y86.501 E18.70611
G1 X100.619 Y86.508 E18.72235
G1 X103.309 Y86.508 E18.81182
G1 X104.023 Y86.5 E18.83556
G1 X117.711 Y86.501 E19.29083
G1 X118.199 Y86.508 E19.30706
G1 X120.889 Y86.508 E19.39653
G1 X121.603 Y86.5 E19.42028
G1 X135.32 Y86.501 E19.87651
G1 X136.057 Y86.513 E19.90103
G1 X137.028 Y86.572 E19.93338
G1 X137.957 Y86.711 E19.96462
G1 X138.905 Y86.939 E19.99705
G1 X139.859 Y87.261 E20.03054
G1 X140.687 Y87.623 E20.0606
G1 X141.573 Y88.107 E20.09418
G1 X142.354 Y88.629 E20.12542
G1 X143.357 Y89.455 E20.16864
G1 X144.454 Y90.483 E20.21864
G1 X146.307 Y92.167 E20.30192
G1 X148.217 Y93.804 E20.38559
G1 X150.173 Y95.389 E20.46932
G1 X152.167 Y96.912 E20.55278
G1 X154.443 Y98.551 E20.64606
G1 X155.061 Y99.027 E20.67201
G1 X155.933 Y99.789 E20.71052
G1 X156.601 Y100.482 E20.74254
G1 X156.849 Y100.761 E20.75495
G1 X157.519 Y101.595 E20.79053
G1 X157.716 Y101.869 E20.80176
G1 X158.355 Y102.856 E20.84086
G1 X158.833 Y103.764 E20.87499
G1 X159.081 Y104.291 E20.89437
G1 X159.43 Y105.123 E20.92437
G1 X159.786 Y106.263 E20.9641
G1 X159.923 Y106.807 E20.98276
G1 X160.105 Y107.691 E21.01277
G1 X160.212 Y108.547 E21.04147
G1 X160.261 Y109.141 E21.06129
G1 X160.297 Y110.11 E21.09354
G1 X160.258 Y110.965 E21.12201
G1 X160.218 Y111.422 E21.13727
G1 X160.101 Y112.318 E21.16732
G1 X159.989 Y112.878 E21.18631
G1 X159.874 Y113.378 E21.20338
G1 X159.529 Y114.569 E21.24462
G1 X159.415 Y114.889 E21.25592
G1 X159.006 Y115.881 E21.29161
G1 X158.856 Y116.196 E21.30321
G1 X158.368 Y117.109 E21.33764
G1 X158.177 Y117.428 E21.35001
G1 X157.555 Y118.353 E21.38708
G1 X157.341 Y118.636 E21.39888
G1 X156.64 Y119.476 E21.43527
G1 X156.402 Y119.732 E21.4469
G1 X155.665 Y120.453 E21.48119
G1 X155.381 Y120.703 E21.49378
G1 X154.523 Y121.389 E21.53031
G1 X152.232 Y123.036 E21.62416
G1 X150.237 Y124.558 E21.70762
G1 X148.261 Y126.154 E21.7921
G1 X146.349 Y127.789 E21.87577
G1 X144.502 Y129.464 E21.9587
G1 X143.398 Y130.506 E22.0092
G1 X142.66 Y131.142 E22.0416
G1 X141.927 Y131.67 E22.07165
G1 X141.029 Y132.203 E22.10638
G1 X140.149 Y132.622 E22.1388
G1 X139.27 Y132.95 E22.17
G1 X138.333 Y133.209 E22.20233
G1 X137.331 Y133.392 E22.23621
G1 X136.197 Y133.485 E22.27406
G1 X135.54 Y133.5 E22.29591
G1 X121.869 Y133.499 E22.75061
G1 X121.381 Y133.492 E22.76684
G1 X118.691 Y133.492 E22.85631
G1 X117.977 Y133.5 E22.88006
G1 X104.289 Y133.499 E23.33533
G1 X103.801 Y133.492 E23.35156
G1 X101.111 Y133.492 E23.44103
G1 X100.402 Y133.5 E23.46461
G1 X86.709 Y133.499 E23.92005
G1 X86.221 Y133.492 E23.93628
G1 X83.531 Y133.492 E24.02575
G1 X82.822 Y133.5 E24.04933
G1 X69.114 Y133.499 E24.50526
G1 X68.381 Y133.488 E24.52964
G1 X67.41 Y133.431 E24.56199
G1 X66.516 Y133.299 E24.59205
G1 X65.534 Y133.066 E24.62562
G1 X64.577 Y132.745 E24.65919
G1 X63.75 Y132.384 E24.6892
G1 X62.863 Y131.901 E24.7228
G1 X62.024 Y131.34 E24.75637
G1 X61.32 Y130.774 E24.78641
G1 X60.567 Y130.05 E24.82115
G1 X59.974 Y129.369 E24.85119
G1 X59.381 Y128.552 E24.88476
G1 X58.864 Y127.685 E24.91834
G1 X58.442 Y126.808 E24.95071
G1 X58.122 Y125.964 E24.98073
G1 X57.848 Y124.992 E25.01432
G1 X57.662 Y123.988 E25.04828
G1 X57.564 Y122.809 E25.08763
G1 X57.55 Y122.158 E25.10929
G1 X57.551 Y113.547 E25.39569
G1 X57.59 Y111.266 E25.47157
G1 X57.594 Y108.705 E25.55675
G1 X57.55 Y106.665 E25.62461
G1 X57.551 Y98.009 E25.91251
G1 X57.563 Y97.308 E25.93583
G1 X57.623 Y96.336 E25.96822
G1 X57.756 Y95.443 E25.99825
G1 X57.991 Y94.461 E26.03183
G1 X58.29 Y93.571 E26.06306
G1 X58.709 Y92.616 E26.09775
G1 X59.143 Y91.825 E26.12776
G1 X59.726 Y90.954 E26.16262
G1 X60.34 Y90.2 E26.19496
G1 X60.992 Y89.526 E26.22615
G1 X61.7 Y88.91 E26.25736
G1 X62.547 Y88.297 E26.29214
G1 F2400 E25.49214
;MESH:watch_joints_test.stl
G0 F6000 X68.964 Y96.835
G0 X82.53 Y121.9
;TYPE:WALL-INNER
G1 F2400 E26.29214
G1 F1200 X82.532 Y111.886 E26.6252
G1 X82.654 Y111.633 E26.63455
G1 X82.859 Y111.463 E26.6434
G1 X83.077 Y111.402 E26.65093
G1 X91.026 Y111.401 E26.91532
G1 X91.29 Y111.475 E26.92444
G1 X91.794 Y111.952 E26.94752
G1 X92.01 Y112.113 E26.95648
G1 X92.324 Y112.302 E26.96867
G1 X92.701 Y112.437 E26.98199
G1 X93.169 Y112.528 E26.99784
G1 X93.481 Y112.55 E27.00825
G1 X93.878 Y112.498 E27.02156
G1 X94.34 Y112.368 E27.03753
G1 X94.695 Y112.209 E27.05046
G1 X95.003 Y111.986 E27.06311
G1 X95.202 Y111.811 E27.07192
G1 X95.372 Y111.626 E27.08028
G1 X95.614 Y111.301 E27.09376
G1 X95.765 Y110.978 E27.10562
G1 X95.859 Y110.711 E27.11503
G1 X95.937 Y110.386 E27.12615
G1 X95.971 Y109.929 E27.14139
G1 X95.918 Y109.535 E27.15461
G1 X95.837 Y109.19 E27.1664
G1 X95.627 Y108.722 E27.18346
G1 X95.406 Y108.418 E27.19596
G1 X95.231 Y108.219 E27.20477
G1 X94.953 Y107.962 E27.21737
G1 X94.504 Y107.693 E27.23478
G1 X94.138 Y107.563 E27.24769
G1 X93.807 Y107.483 E27.25902
G1 X93.363 Y107.45 E27.27383
G1 X92.962 Y107.501 E27.28727
G1 X92.497 Y107.633 E27.30335
G1 X92.145 Y107.791 E27.31618
G1 X91.837 Y108.014 E27.32883
G1 X91.639 Y108.189 E27.33762
G1 X91.398 Y108.44 E27.34919
G1 X91.243 Y108.545 E27.35542
G1 X91.039 Y108.599 E27.36244
G1 X83.033 Y108.598 E27.62872
G1 X82.801 Y108.503 E27.63706
G1 X82.656 Y108.369 E27.64362
G1 X82.532 Y108.057 E27.65479
G1 X82.53 Y98.1 E27.98596
G1 X69.15 Y98.1 E28.43098
G1 X69.151 Y106.399 E28.70701
G1 X71.604 Y106.399 E28.7886
G1 X71.855 Y106.113 E28.80125
G1 X72.282 Y105.731 E28.82031
G1 X72.718 Y105.404 E28.83843
G1 X73.188 Y105.117 E28.85675
G1 X73.671 Y104.885 E28.87457
G1 X74.257 Y104.674 E28.89529
G1 X74.727 Y104.556 E28.91141
G1 X75.314 Y104.47 E28.93114
G1 X75.809 Y104.445 E28.94762
G1 X76.34 Y104.467 E28.9653
G1 X76.958 Y104.558 E28.98607
G1 X77.428 Y104.677 E29.0022
G1 X77.996 Y104.878 E29.02224
G1 X78.487 Y105.113 E29.04034
G1 X78.889 Y105.355 E29.05595
G1 X79.39 Y105.725 E29.07667
G1 X79.79 Y106.092 E29.09472
G1 X80.119 Y106.454 E29.11099
G1 X80.471 Y106.931 E29.13071
G1 X80.757 Y107.411 E29.14929
G1 X80.984 Y107.897 E29.16713
G1 X81.167 Y108.419 E29.18553
G1 X81.285 Y108.89 E29.20168
G1 X81.371 Y109.478 E29.22145
G1 X81.395 Y109.97 E29.23783
G1 X81.373 Y110.5 E29.25547
G1 X81.295 Y111.057 E29.27418
G1 X81.15 Y111.637 E29.29406
G1 X80.985 Y112.1 E29.31041
G1 X80.757 Y112.589 E29.32836
G1 X80.455 Y113.091 E29.34784
G1 X80.149 Y113.508 E29.36504
G1 X79.788 Y113.909 E29.38299
G1 X79.339 Y114.318 E29.40319
G1 X78.955 Y114.601 E29.41906
G1 X78.429 Y114.917 E29.43947
G1 X77.943 Y115.144 E29.45731
G1 X77.421 Y115.327 E29.4757
G1 X76.907 Y115.454 E29.49331
G1 X76.366 Y115.53 E29.51148
G1 X75.871 Y115.555 E29.52797
G1 X75.33 Y115.532 E29.54598
G1 X74.727 Y115.444 E29.56625
G1 X74.248 Y115.324 E29.58267
G1 X73.679 Y115.12 E29.60278
G1 X73.241 Y114.912 E29.6189
G1 X72.715 Y114.594 E29.63935
G1 X72.287 Y114.272 E29.65716
G1 X71.932 Y113.95 E29.6731
G1 X71.616 Y113.6 E29.68879
G1 X69.151 Y113.601 E29.77077
G1 X69.151 Y121.899 E30.04676
G1 X82.53 Y121.9 E30.49175
G0 F6000 X82.93 Y122.3
;TYPE:WALL-OUTER
G1 F1200 X82.935 Y111.951 E30.83596
G1 X82.971 Y111.877 E30.8387
G1 X83.112 Y111.8 E30.84404
G1 X91.052 Y111.8 E31.10813
G1 X91.536 Y112.259 E31.13031
G1 X91.787 Y112.445 E31.1407
G1 X92.033 Y112.594 E31.15027
G1 X92.293 Y112.716 E31.15982
